X: 311
T:Sonny Brogan's
T:Bill Harte's
T:The Rookery
R:jig
S:Mike Rafferty gave this as learning version
Z:Lesl
M:6/8
L:1/8
K:Dmix
DED A~A2|BAG A2z|DED AzA|BAG EGE|
DED A2z|BAG ABc|ded czA|1 BAG EDB:|2 BAG ED^c||
ded czA|BAG ABc|ded czA|BAG ED^c|
ded czA|BAG ABc|ded czA|BAG EDB|D6||
<end>
<start>
